images/facebook.svg

<svg height="93.6" viewBox="0 0 94.5 93.6" width="94.5" xmlns="http://www.w3.org/2000/svg"><g transform="translate(1.478 1.479)"><path d="m5.2 1h81.2c2.3 0 4.2 1.9 4.2 4.2v80.3c0 2.3-1.9 4.2-4.2 4.2h-81.2c-2.3 0-4.2-1.9-4.2-4.2v-80.3c0-2.3 1.9-4.2 4.2-4.2z" stroke="#fff" stroke-linecap="round" stroke-linejoin="round" stroke-width="3"/><path d="m71.9 17.2v11.8h-8.7c-1.9 0-2.8.6-2.8 2.2v7h10.8v10.4h-11v29.7h-12.4v-30h-8v-10.6h8.2v-12.3c.4-4.3 3.2-6.7 7.9-7.9z" fill="#fff"/></g></svg>

<svg xmlns="http://www.w3.org/2000/svg" id="Layer_1" width="94.5" height="93.6" viewBox="0 0 94.5 93.6"><style>.st0{display:none}.st1{display:inline;fill:#5fb67c}.st2{stroke:#fff;stroke-width:3;stroke-linecap:round;stroke-linejoin:round}.st3{fill:#fff}</style><g id="Facebook" transform="translate(1.478 1.478)"><g id="Group_36"><g id="Group_34" class="st0"><path id="Path_51" d="M82.2 89.6H9.3c-4.6 0-8.3-3.7-8.3-8.3v-72C1 4.7 4.7 1 9.3 1h72.9c4.6 0 8.3 3.7 8.3 8.3v72c0 4.6-3.7 8.3-8.3 8.3zM63.3 28.9H72V17.2l-16.1.3c-4.7 1.1-7.5 3.6-7.9 7.9v12.3h-8.2v10.5h8v30h12.3V48.5h11.1V38.1H60.5v-7c0-1.6.9-2.1 2.8-2.2z" class="st1"/></g><g id="Group_35" transform="translate(0 .001)"><path id="Rectangle_19" d="M5.2 1h81.2c2.3 0 4.2 1.9 4.2 4.2v80.3c0 2.3-1.9 4.2-4.2 4.2H5.2c-2.3 0-4.2-1.9-4.2-4.2V5.2C1 2.9 2.9 1 5.2 1z" class="st2"/><path id="Path_52" d="M71.9 17.2V29h-8.7c-1.9 0-2.8.6-2.8 2.2v7h10.8v10.4h-11v29.7H47.8v-30h-8V37.7H48V25.4c.4-4.3 3.2-6.7 7.9-7.9l16-.3z" class="st3"/></g></g></g></svg>
